static/assets/images/networks/neon-evm.svg

<svg width="256" height="256" viewBox="0 0 256 256" fill="none" xmlns="http://www.w3.org/2000/svg">
<path d="M128 256C198.692 256 256 198.692 256 128C256 57.3075 198.692 0 128 0C57.3075 0 0 57.3075 0 128C0 198.692 57.3075 256 128 256Z" fill="black"/>
<path d="M64.0413 58.583L129.984 124.069C131.039 124.441 131.902 125.217 132.385 126.225C132.867 127.234 132.929 128.393 132.557 129.448C132.185 130.502 131.409 131.366 130.4 131.848C129.392 132.331 128.233 132.393 127.178 132.02H61.2352C60.6408 132.024 60.0524 131.902 59.5086 131.662C58.9649 131.421 58.4782 131.069 58.0805 130.627C57.6829 130.185 57.3833 129.664 57.2016 129.098C57.0198 128.532 56.96 127.934 57.0261 127.343V61.3895C57.0859 60.605 57.3644 59.8529 57.8299 59.2187C58.2954 58.5844 58.9294 58.0933 59.6598 57.8011C60.3902 57.5089 61.1879 57.4273 61.9623 57.5654C62.7368 57.7036 63.457 58.0561 64.0413 58.583Z" fill="#FF86FF"/>
<path d="M131.154 130.617L65.2105 196.571C64.347 197.452 63.1703 197.956 61.9367 197.974C61.346 198.04 60.748 197.98 60.182 197.798C59.6161 197.617 59.095 197.317 58.6532 196.919C58.2114 196.522 57.8588 196.035 57.6186 195.491C57.3785 194.947 57.2562 194.359 57.2599 193.764V127.811C57.2562 127.216 57.3785 126.628 57.6186 126.084C57.8588 125.54 58.2114 125.053 58.6532 124.656C59.095 124.258 59.6161 123.958 60.182 123.776C60.748 123.595 61.346 123.535 61.9367 123.601H127.88C128.704 123.574 129.518 123.789 130.221 124.221C130.923 124.652 131.484 125.281 131.833 126.028C132.181 126.775 132.303 127.609 132.182 128.425C132.061 129.241 131.704 130.003 131.154 130.617Z" fill="#FF59FF"/>
<path d="M59.1306 190.958L124.606 125.004C125.016 124.545 125.522 124.182 126.087 123.939C126.653 123.697 127.265 123.581 127.88 123.601C128.471 123.535 129.069 123.595 129.635 123.776C130.201 123.958 130.722 124.258 131.163 124.656C131.605 125.053 131.958 125.54 132.198 126.084C132.438 126.628 132.56 127.216 132.557 127.811V193.764C132.56 194.359 132.438 194.947 132.198 195.491C131.958 196.035 131.605 196.522 131.163 196.919C130.722 197.317 130.201 197.617 129.635 197.798C129.069 197.98 128.471 198.04 127.88 197.974H62.4044C61.3232 197.885 60.3179 197.383 59.5983 196.571C58.9081 195.799 58.5265 194.8 58.5265 193.764C58.5265 192.729 58.9081 191.729 59.5983 190.958H59.1306Z" fill="#F41AFA"/>
<path d="M191.017 196.571L125.074 131.085C124.551 130.595 124.162 129.98 123.943 129.298C123.724 128.616 123.683 127.889 123.823 127.186C123.964 126.484 124.281 125.829 124.746 125.283C125.21 124.738 125.806 124.32 126.477 124.069L127.88 123.601H193.823C194.414 123.535 195.012 123.595 195.578 123.776C196.144 123.958 196.665 124.258 197.107 124.656C197.548 125.053 197.901 125.54 198.141 126.084C198.381 126.628 198.504 127.216 198.5 127.811V193.764C198.504 194.359 198.381 194.947 198.141 195.491C197.901 196.035 197.548 196.522 197.107 196.919C196.665 197.317 196.144 197.617 195.578 197.798C195.012 197.98 194.414 198.04 193.823 197.974C192.754 197.843 191.763 197.348 191.017 196.571Z" fill="#E200F1"/>
<path d="M125.074 125.004L190.549 59.0507C191.413 58.1694 192.59 57.665 193.823 57.6474C194.414 57.5814 195.012 57.6412 195.578 57.823C196.144 58.0047 196.665 58.3043 197.107 58.702C197.548 59.0998 197.901 59.5865 198.141 60.1304C198.381 60.6742 198.504 61.2627 198.5 61.8572V127.811C198.504 128.405 198.381 128.994 198.141 129.538C197.901 130.081 197.548 130.568 197.107 130.966C196.665 131.364 196.144 131.663 195.578 131.845C195.012 132.027 194.414 132.087 193.823 132.02H127.88C127.056 132.048 126.242 131.832 125.539 131.401C124.836 130.969 124.276 130.341 123.927 129.593C123.578 128.846 123.457 128.013 123.578 127.197C123.698 126.381 124.056 125.618 124.606 125.004" fill="#BC00DE"/>
<path d="M196.629 64.6638L131.154 130.617C130.29 131.499 129.113 132.003 127.88 132.02C127.289 132.087 126.691 132.027 126.125 131.845C125.559 131.663 125.038 131.364 124.596 130.966C124.155 130.568 123.802 130.081 123.562 129.538C123.322 128.994 123.199 128.405 123.203 127.811V61.8572C123.199 61.2627 123.322 60.6742 123.562 60.1304C123.802 59.5865 124.155 59.0998 124.596 58.702C125.038 58.3043 125.559 58.0047 126.125 57.823C126.691 57.6412 127.289 57.5814 127.88 57.6474H193.355C193.971 57.6278 194.582 57.7432 195.148 57.9857C195.714 58.2281 196.219 58.5917 196.629 59.0507C197.236 59.8604 197.565 60.8452 197.565 61.8572C197.565 62.8693 197.236 63.8541 196.629 64.6638Z" fill="#9900CC"/>
</svg>

<svg xmlns="http://www.w3.org/2000/svg" fill="none" viewBox="0 0 256 256"><path fill="#000" d="M128 256c70.692 0 128-57.308 128-128S198.692 0 128 0 0 57.308 0 128s57.308 128 128 128"/><path fill="#FF86FF" d="m64.041 58.583 65.943 65.486a4.22 4.22 0 0 1 2.573 5.379 4.215 4.215 0 0 1-5.379 2.572H61.235a4.206 4.206 0 0 1-4.209-4.677V61.39a4.21 4.21 0 0 1 7.015-2.807"/><path fill="#FF59FF" d="m131.154 130.617-65.943 65.954a4.68 4.68 0 0 1-3.274 1.403 4.21 4.21 0 0 1-4.318-2.483 4.2 4.2 0 0 1-.36-1.727v-65.953a4.21 4.21 0 0 1 4.678-4.21h65.943a4.207 4.207 0 0 1 4.302 4.824 4.2 4.2 0 0 1-1.028 2.192"/><path fill="#F41AFA" d="m59.13 190.958 65.476-65.954a4.21 4.21 0 0 1 3.274-1.403 4.2 4.2 0 0 1 3.283 1.055 4.2 4.2 0 0 1 1.394 3.155v65.953a4.2 4.2 0 0 1-1.394 3.155 4.2 4.2 0 0 1-3.283 1.055H62.404a4.2 4.2 0 0 1-2.806-1.403 4.21 4.21 0 0 1 0-5.613z"/><path fill="#E200F1" d="m191.017 196.571-65.943-65.486a4.214 4.214 0 0 1-.328-5.802 4.2 4.2 0 0 1 1.731-1.214l1.403-.468h65.943a4.212 4.212 0 0 1 4.677 4.21v65.953a4.21 4.21 0 0 1-2.922 4.034 4.2 4.2 0 0 1-1.755.176 4.68 4.68 0 0 1-2.806-1.403"/><path fill="#BC00DE" d="m125.074 125.004 65.475-65.953a4.68 4.68 0 0 1 3.274-1.404 4.21 4.21 0 0 1 4.677 4.21v65.954a4.21 4.21 0 0 1-4.677 4.209H127.88a4.21 4.21 0 0 1-3.953-2.427c-.349-.747-.47-1.58-.349-2.396a4.2 4.2 0 0 1 1.028-2.193"/><path fill="#90C" d="m196.629 64.664-65.475 65.953a4.67 4.67 0 0 1-3.274 1.403 4.21 4.21 0 0 1-4.677-4.209V61.857a4.21 4.21 0 0 1 2.922-4.034 4.2 4.2 0 0 1 1.755-.176h65.475a4.21 4.21 0 0 1 3.274 1.404 4.68 4.68 0 0 1 0 5.613"/></svg>
